img/plus.svg

<svg width="15" height="16" fill="none" xmlns="http://www.w3.org/2000/svg"><path d="M8.376.288h.072c.288 0 .496.096.624.288a.894.894 0 01.192.528.453.453 0 01-.024.144.267.267 0 00-.024.12c0 .064.008.128.024.192a.624.624 0 01.024.192c0 .24-.04.464-.12.672.032.16.048.288.048.384 0 .208-.032.352-.096.432.016.192.024.376.024.552a5.07 5.07 0 010 .984c-.016.192-.04.296-.072.312.032.016.048.056.048.12v.12c0 .288.104.52.312.696.224.16.448.24.672.24.176 0 .344-.024.504-.072.176-.048.352-.072.528-.072.16 0 .28.016.36.048h.048c.176 0 .36.008.552.024.208.016.408.024.6.024.24 0 .464-.016.672-.048.224-.048.424-.072.6-.072s.296.056.36.168c.08.096.168.144.264.144.048.08.112.152.192.216s.12.144.12.24a.553.553 0 01-.048.192.892.892 0 00-.024.216.79.79 0 00.048.24v.072c0 .064.008.128.024.192a.789.789 0 01.024.192.162.162 0 01-.072.144c-.032.032-.048.08-.048.144 0 .08.016.152.048.216a.32.32 0 01.072.192c-.096.128-.184.24-.264.336-.08.08-.16.152-.24.216-.08.064-.152.096-.216.096a.705.705 0 01-.168-.024.296.296 0 00-.168-.048.789.789 0 00-.192.024h-.168a.599.599 0 01-.264-.048c-.032.032-.08.048-.144.048h-.144c-.192 0-.376-.008-.552-.024a3.225 3.225 0 00-.576-.048c-.016.032-.088.056-.216.072a2.769 2.769 0 01-.24.024c-.128 0-.248-.008-.36-.024a1.895 1.895 0 01-.288-.072c-.064.032-.176.048-.336.048-.112 0-.2-.008-.264-.024a.599.599 0 00-.264-.048c-.512 0-.768.352-.768 1.056 0 .096.008.192.024.288.016.096.04.176.072.24-.032.032-.048.08-.048.144.016.048.008.088-.024.12 0 .16.016.328.048.504.032.16.048.328.048.504 0 .08-.016.2-.048.36a.842.842 0 01.024.24c0 .08-.008.168-.024.264-.016.08-.024.168-.024.264 0 .08.008.152.024.216a.624.624 0 01.024.192c0 .08-.008.16-.024.24v.24c0 .096.016.184.048.264a.426.426 0 01.048.192c0 .128-.056.24-.168.336a1.385 1.385 0 01-.432.24 1.86 1.86 0 01-.552.168 2.275 2.275 0 01-.888.048h-.144c-.304 0-.552-.08-.744-.24a1.161 1.161 0 01-.384-.648.762.762 0 00.048-.216c0-.08-.016-.16-.048-.24a1.221 1.221 0 01-.024-.24c0-.096.008-.208.024-.336.016-.128.024-.256.024-.384v-.288c0-.096-.008-.184-.024-.264 0-.048.008-.088.024-.12a.233.233 0 00.048-.12.395.395 0 00-.024-.12.624.624 0 010-.336A.892.892 0 006 11.52a.426.426 0 00-.048-.192 1.14 1.14 0 01-.024-.264c.048-.048.064-.112.048-.192 0-.096.024-.168.072-.216-.032-.032-.048-.096-.048-.192 0-.112.008-.192.024-.24a.789.789 0 00.024-.192.64.64 0 00-.24-.528.831.831 0 00-.84-.168c-.08.016-.152.024-.216.024a.532.532 0 01-.168-.024.624.624 0 00-.192-.024h-.96a.906.906 0 01-.288-.048 7.542 7.542 0 01-1.224.096h-.384c-.144 0-.288-.008-.432-.024a2.388 2.388 0 01-.36-.072c-.112-.032-.176-.072-.192-.12-.112-.096-.16-.232-.144-.408.016-.176-.032-.312-.144-.408l-.048-.24V7.8c0-.096.008-.184.024-.264a.388.388 0 01.096-.216.705.705 0 00-.048-.264.84.84 0 01-.048-.264c0-.032.024-.088.072-.168.064-.096.144-.192.24-.288.096-.096.2-.176.312-.24a.608.608 0 01.36-.12c.096 0 .192.032.288.096.096.048.2.072.312.072.08 0 .168-.008.264-.024s.192-.024.288-.024c.096 0 .208.024.336.072.016-.032.08-.048.192-.048.128-.016.232-.024.312-.024.336 0 .64.024.912.072h.24c.096-.016.192-.024.288-.024.16 0 .28.024.36.072.096.032.208.048.336.048.144 0 .296-.112.456-.336.16-.24.24-.472.24-.696-.064-.08-.104-.224-.12-.432v-.384c0-.08.008-.152.024-.216A.426.426 0 006 4.008a.351.351 0 00-.072-.216.476.476 0 01-.048-.216c0-.048.008-.104.024-.168a.59.59 0 00.048-.216c0-.096-.008-.184-.024-.264a1.616 1.616 0 01-.024-.264c0-.08.024-.168.072-.264 0-.112-.008-.224-.024-.336a3.093 3.093 0 01-.024-.384c.016-.016.024-.04.024-.072v-.192a.426.426 0 01-.048-.192c0-.048.008-.12.024-.216.032-.112.072-.224.12-.336a1.24 1.24 0 01.168-.288A.483.483 0 016.48.24c.208 0 .384-.016.528-.048.16-.048.328-.072.504-.072s.336.008.48.024a.801.801 0 01.384.144zM6.864 5.88c-.016-.032-.048-.048-.096-.048h-.096c0 .08.04.12.12.12l.072-.072zm.312.888c-.016-.016-.048-.024-.096-.024a.426.426 0 00-.192.048.426.426 0 01-.192.048c0 .048.024.072.072.072.176 0 .312-.048.408-.144zm-.624 1.248a.213.213 0 00.024-.096c0-.064-.04-.096-.12-.096a.43.43 0 00-.216.072c-.08.032-.12.088-.12.168 0 .032.016.048.048.048.08 0 .144-.008.192-.024a.938.938 0 01.192-.072z" fill="#BEBECB"/></svg>

<svg width="15" height="16" viewBox="0 0 15 16" fill="none" xmlns="http://www.w3.org/2000/svg">
<path d="M8.376 0.287999H8.448C8.736 0.287999 8.944 0.383999 9.072 0.576C9.2 0.751999 9.264 0.927999 9.264 1.104C9.264 1.152 9.256 1.2 9.24 1.248C9.224 1.28 9.216 1.32 9.216 1.368C9.216 1.432 9.224 1.496 9.24 1.56C9.256 1.608 9.264 1.672 9.264 1.752C9.264 1.992 9.224 2.216 9.144 2.424C9.176 2.584 9.192 2.712 9.192 2.808C9.192 3.016 9.16 3.16 9.096 3.24C9.112 3.432 9.12 3.616 9.12 3.792C9.136 3.952 9.144 4.12 9.144 4.296C9.144 4.408 9.136 4.568 9.12 4.776C9.104 4.968 9.08 5.072 9.048 5.088C9.08 5.104 9.096 5.144 9.096 5.208V5.328C9.096 5.616 9.2 5.848 9.408 6.024C9.632 6.184 9.856 6.264 10.08 6.264C10.256 6.264 10.424 6.24 10.584 6.192C10.76 6.144 10.936 6.12 11.112 6.12C11.272 6.12 11.392 6.136 11.472 6.168H11.52C11.696 6.168 11.88 6.176 12.072 6.192C12.28 6.208 12.48 6.216 12.672 6.216C12.912 6.216 13.136 6.2 13.344 6.168C13.568 6.12 13.768 6.096 13.944 6.096C14.12 6.096 14.24 6.152 14.304 6.264C14.384 6.36 14.472 6.408 14.568 6.408C14.616 6.488 14.68 6.56 14.76 6.624C14.84 6.688 14.88 6.768 14.88 6.864C14.88 6.912 14.864 6.976 14.832 7.056C14.816 7.12 14.808 7.192 14.808 7.272C14.808 7.336 14.824 7.416 14.856 7.512V7.584C14.856 7.648 14.864 7.712 14.88 7.776C14.896 7.84 14.904 7.904 14.904 7.968C14.904 8.032 14.88 8.08 14.832 8.112C14.8 8.144 14.784 8.192 14.784 8.256C14.784 8.336 14.8 8.408 14.832 8.472C14.88 8.536 14.904 8.6 14.904 8.664C14.808 8.792 14.72 8.904 14.64 9C14.56 9.08 14.48 9.152 14.4 9.216C14.32 9.28 14.248 9.312 14.184 9.312C14.136 9.312 14.08 9.304 14.016 9.288C13.968 9.256 13.912 9.24 13.848 9.24C13.784 9.24 13.72 9.248 13.656 9.264C13.608 9.264 13.552 9.264 13.488 9.264C13.376 9.264 13.288 9.248 13.224 9.216C13.192 9.248 13.144 9.264 13.08 9.264C13.032 9.264 12.984 9.264 12.936 9.264C12.744 9.264 12.56 9.256 12.384 9.24C12.208 9.208 12.016 9.192 11.808 9.192C11.792 9.224 11.72 9.248 11.592 9.264C11.464 9.28 11.384 9.288 11.352 9.288C11.224 9.288 11.104 9.28 10.992 9.264C10.896 9.248 10.8 9.224 10.704 9.192C10.64 9.224 10.528 9.24 10.368 9.24C10.256 9.24 10.168 9.232 10.104 9.216C10.04 9.184 9.952 9.168 9.84 9.168C9.328 9.168 9.072 9.52 9.072 10.224C9.072 10.32 9.08 10.416 9.096 10.512C9.112 10.608 9.136 10.688 9.168 10.752C9.136 10.784 9.12 10.832 9.12 10.896C9.136 10.944 9.128 10.984 9.096 11.016C9.096 11.176 9.112 11.344 9.144 11.52C9.176 11.68 9.192 11.848 9.192 12.024C9.192 12.104 9.176 12.224 9.144 12.384C9.16 12.432 9.168 12.512 9.168 12.624C9.168 12.704 9.16 12.792 9.144 12.888C9.128 12.968 9.12 13.056 9.12 13.152C9.12 13.232 9.128 13.304 9.144 13.368C9.16 13.416 9.168 13.48 9.168 13.56C9.168 13.64 9.16 13.72 9.144 13.8C9.144 13.88 9.144 13.96 9.144 14.04C9.144 14.136 9.16 14.224 9.192 14.304C9.224 14.368 9.24 14.432 9.24 14.496C9.24 14.624 9.184 14.736 9.072 14.832C8.96 14.928 8.816 15.008 8.64 15.072C8.48 15.152 8.296 15.208 8.088 15.24C7.896 15.288 7.712 15.312 7.536 15.312C7.392 15.312 7.28 15.304 7.2 15.288H7.056C6.752 15.288 6.504 15.208 6.312 15.048C6.12 14.888 5.992 14.672 5.928 14.4C5.96 14.304 5.976 14.232 5.976 14.184C5.976 14.104 5.96 14.024 5.928 13.944C5.912 13.864 5.904 13.784 5.904 13.704C5.904 13.608 5.912 13.496 5.928 13.368C5.944 13.24 5.952 13.112 5.952 12.984C5.952 12.888 5.952 12.792 5.952 12.696C5.952 12.6 5.944 12.512 5.928 12.432C5.928 12.384 5.936 12.344 5.952 12.312C5.984 12.264 6 12.224 6 12.192C6 12.16 5.992 12.12 5.976 12.072C5.96 12.024 5.952 11.976 5.952 11.928C5.952 11.848 5.96 11.784 5.976 11.736C5.992 11.672 6 11.6 6 11.52C6 11.456 5.984 11.392 5.952 11.328C5.936 11.264 5.928 11.176 5.928 11.064C5.976 11.016 5.992 10.952 5.976 10.872C5.976 10.776 6 10.704 6.048 10.656C6.016 10.624 6 10.56 6 10.464C6 10.352 6.008 10.272 6.024 10.224C6.04 10.16 6.048 10.096 6.048 10.032C6.048 9.808 5.968 9.632 5.808 9.504C5.648 9.36 5.456 9.288 5.232 9.288C5.136 9.288 5.048 9.304 4.968 9.336C4.888 9.352 4.816 9.36 4.752 9.36C4.688 9.36 4.632 9.352 4.584 9.336C4.536 9.32 4.472 9.312 4.392 9.312H3.768C3.656 9.312 3.544 9.312 3.432 9.312C3.336 9.312 3.24 9.296 3.144 9.264C2.952 9.296 2.752 9.32 2.544 9.336C2.352 9.352 2.144 9.36 1.92 9.36C1.808 9.36 1.68 9.36 1.536 9.36C1.392 9.36 1.248 9.352 1.104 9.336C0.976 9.32 0.856 9.296 0.744 9.264C0.632 9.232 0.568 9.192 0.552 9.144C0.44 9.048 0.392 8.912 0.408 8.736C0.424 8.56 0.376 8.424 0.264 8.328C0.248 8.248 0.232 8.168 0.216 8.088C0.216 7.992 0.216 7.896 0.216 7.8C0.216 7.704 0.224 7.616 0.24 7.536C0.256 7.44 0.288 7.368 0.336 7.32C0.336 7.224 0.32 7.136 0.288 7.056C0.256 6.96 0.24 6.872 0.24 6.792C0.24 6.76 0.264 6.704 0.312 6.624C0.376 6.528 0.456 6.432 0.552 6.336C0.648 6.24 0.752 6.16 0.864 6.096C0.976 6.016 1.096 5.976 1.224 5.976C1.32 5.976 1.416 6.008 1.512 6.072C1.608 6.12 1.712 6.144 1.824 6.144C1.904 6.144 1.992 6.136 2.088 6.12C2.184 6.104 2.28 6.096 2.376 6.096C2.472 6.096 2.584 6.12 2.712 6.168C2.728 6.136 2.792 6.12 2.904 6.12C3.032 6.104 3.136 6.096 3.216 6.096C3.552 6.096 3.856 6.12 4.128 6.168C4.208 6.168 4.288 6.168 4.368 6.168C4.464 6.152 4.56 6.144 4.656 6.144C4.816 6.144 4.936 6.168 5.016 6.216C5.112 6.248 5.224 6.264 5.352 6.264C5.496 6.264 5.648 6.152 5.808 5.928C5.968 5.688 6.048 5.456 6.048 5.232C5.984 5.152 5.944 5.008 5.928 4.8C5.928 4.592 5.928 4.464 5.928 4.416C5.928 4.336 5.936 4.264 5.952 4.2C5.984 4.136 6 4.072 6 4.008C6 3.928 5.976 3.856 5.928 3.792C5.896 3.728 5.88 3.656 5.88 3.576C5.88 3.528 5.888 3.472 5.904 3.408C5.936 3.328 5.952 3.256 5.952 3.192C5.952 3.096 5.944 3.008 5.928 2.928C5.912 2.832 5.904 2.744 5.904 2.664C5.904 2.584 5.928 2.496 5.976 2.4C5.976 2.288 5.968 2.176 5.952 2.064C5.936 1.936 5.928 1.808 5.928 1.68C5.944 1.664 5.952 1.64 5.952 1.608V1.464V1.416C5.92 1.352 5.904 1.288 5.904 1.224C5.904 1.176 5.912 1.104 5.928 1.008C5.96 0.895999 6 0.783999 6.048 0.672C6.096 0.559999 6.152 0.463999 6.216 0.383999C6.296 0.303999 6.384 0.256 6.48 0.24C6.688 0.24 6.864 0.224 7.008 0.191999C7.168 0.144 7.336 0.12 7.512 0.12C7.688 0.12 7.848 0.128 7.992 0.144C8.136 0.159999 8.264 0.207999 8.376 0.287999ZM6.864 5.88C6.848 5.848 6.816 5.832 6.768 5.832H6.696H6.672C6.672 5.912 6.712 5.952 6.792 5.952C6.84 5.904 6.864 5.88 6.864 5.88ZM7.176 6.768C7.16 6.752 7.128 6.744 7.08 6.744C7.016 6.744 6.952 6.76 6.888 6.792C6.824 6.824 6.76 6.84 6.696 6.84C6.696 6.888 6.72 6.912 6.768 6.912C6.944 6.912 7.08 6.864 7.176 6.768ZM6.552 8.016C6.568 7.984 6.576 7.952 6.576 7.92C6.576 7.856 6.536 7.824 6.456 7.824C6.392 7.824 6.32 7.848 6.24 7.896C6.16 7.928 6.12 7.984 6.12 8.064C6.12 8.096 6.136 8.112 6.168 8.112C6.248 8.112 6.312 8.104 6.36 8.088C6.424 8.056 6.488 8.032 6.552 8.016Z" fill="#BEBECB"/>
</svg>
